X:61
T: SCHNECKHAUS SCHNECKHAUS STECKE DEINE HOERNER AUS
N: K0885
O: Europa, Mitteleuropa, Deutschland, Thueringen, Stotternheim
R: Kinder -, Tier - Lied
M: 2/4
L: 1/8
K: G
 | d2B2 | d2B2
GABc | ddB2
GABc | ddB2
GABc | d2B2
GABc | d2B2
ddB2 | ddB2
ddB2 | edcB | A2G2

